X:298
%%topmargin 3cm
T:King George the IVth
C:Capt. Daniel Menzies.
C:Skye set
O:Scotland
B:Keith Norman MacDonald : "The Skye collection of the best reels & strathspeys extant" : 1887
Z:Ralph Palmer
R:Strathspey
M:C
L:1/8
K:A minor
A | @A,B, C>B,A,>A | @A,C B,>A,G,>B, | A,A,A,>B, {/B,}C>DE>C | B,>D{/F}G>E D/C/B,/A,/ G, :|
B | c>eA>e c>e d/c/B/A/ | c>eA>e d/c/B/A/ {/^F}G>B | c>eA>e c>ee^f | ga ge d/c/B/A/ G2 |
c>eA>e c>e d/c/B/A/ | c>eA>e d/c/B/A/ G2 | {/A}L(B<c) (LA<B) (Lc<d) (LA<^F) | (LA<G) (LE<D) (LC<B,) LA,<G, |]
